src/assets/realEstate.svg

<svg width="115" height="93" viewBox="0 0 115 93" fill="none" xmlns="http://www.w3.org/2000/svg">
<path d="M1.57422 89.4367C1.9488 89.122 2.40207 89.251 2.8333 89.251C5.69457 89.251 8.559 89.1881 11.4171 89.2699C12.5755 89.3045 12.9375 89.0307 12.9343 87.7968C12.884 75.3728 12.9028 62.9487 12.9028 50.5247C12.9028 47.4274 12.9028 44.33 12.9028 41.2358C13.3215 40.7542 13.8975 40.8172 14.4358 40.8172C29.1545 40.8046 43.8711 40.8046 58.5856 40.8172C59.0955 40.8172 59.6117 40.8172 60.0587 41.132C60.4553 41.6387 60.3987 42.2431 60.3987 42.8286C60.3987 57.7424 60.3987 72.6573 60.3987 87.5733C60.3987 89.4052 60.2004 89.5784 58.3558 89.5847C56.5113 89.591 54.7454 89.5847 52.9418 89.5847C52.4728 89.5847 51.9974 89.635 51.5662 89.3706C51.009 88.7411 51.1727 87.9604 51.1727 87.2333C51.1601 77.5489 51.1601 67.8655 51.1727 58.1831C51.1727 57.7519 51.1727 57.3206 51.1727 56.8894C51.1727 55.6303 50.6628 54.7773 49.4037 54.4562C47.8298 54.047 46.1804 54.1414 44.6097 54.324C42.57 54.5664 40.5429 54.5003 38.5095 54.5318C36.1991 54.5632 33.8855 54.5318 31.5845 54.5318C29.5637 54.5318 29.1041 54.9945 29.1009 57.0499C29.0883 67.2044 29.0883 77.359 29.1009 87.5135C29.1009 88.206 29.23 88.9362 28.7673 89.5595C28.2448 89.9215 27.6435 89.8743 27.0581 89.8743C19.1762 89.8743 11.2933 89.8743 3.40936 89.8743C2.7326 89.8554 2.06841 89.975 1.57422 89.4367Z" fill="#F3F3F3"/>
<path d="M59.9811 41.2358C58.4953 41.2358 57.0065 41.1981 55.5208 41.1981H14.2858C13.8167 41.1981 13.3415 41.2201 12.8787 41.2358L10.4078 41.1949C9.89394 41.2111 9.38705 41.0728 8.9527 40.7979C8.51836 40.5229 8.17655 40.1239 7.97143 39.6525C7.72372 39.201 7.62794 38.6817 7.69823 38.1715C7.76852 37.6613 8.00116 37.1873 8.36174 36.8196C9.3753 35.7273 10.4644 34.7075 11.5095 33.6719L36.6659 8.71997C39.0834 11.0115 41.3875 13.3975 43.7483 15.7583C50.4907 22.5384 57.4786 29.0699 64.1518 35.9036C64.7309 36.4954 65.3164 37.062 65.4109 37.9559C65.6155 39.6683 64.9198 40.7889 63.1634 41.4782C62.1089 41.5034 61.0135 41.7804 59.9811 41.2358Z" fill="#2ECC82"/>
<path d="M48.6829 13.6904L69.6749 13.6494C70.934 13.6494 72.1773 13.6306 73.427 13.618C74.3209 13.0262 75.3156 13.3504 76.2757 13.2875C76.9365 13.2465 77.5994 13.256 78.2587 13.3158C78.3859 13.3296 78.5114 13.3559 78.6333 13.3945C78.9597 13.5301 79.2505 13.7391 79.4832 14.0051C82.0013 16.5233 84.5888 18.9659 87.1258 21.4621C91.284 25.5541 95.5837 29.4919 99.6537 33.6752C100.522 34.5691 101.574 35.2837 102.399 36.2311C104.117 38.2142 103.519 40.5466 101.058 41.4752C99.4271 41.6231 97.7966 41.5413 96.166 41.5413C87.8152 41.5665 79.4643 41.6546 71.1197 41.5004C70.5972 41.3556 70.3391 41.1856 70.8616 40.6537C72.5897 38.9539 72.5865 38.0599 70.8868 36.3602C63.7981 29.2715 56.7127 22.1808 49.6303 15.0879C49.2337 14.6913 48.6514 14.3892 48.6829 13.6904Z" fill="#2ECC82"/>
<path d="M1.43587 89.4207H26.1124C26.4784 89.1668 26.908 89.0462 27.3399 89.0761C32.1004 89.0761 36.858 89.0286 41.6186 89.1045C43.4382 89.1709 45.2723 88.82 47.0805 89.3227C49.4435 89.3638 51.8094 89.4176 54.1696 89.3227C67.2581 88.8105 80.3524 89.1678 93.4409 89.1931C97.0372 89.1931 100.654 89.1362 104.253 89.4144C105.365 89.8128 105.888 90.559 105.725 91.5045C105.561 92.4499 104.862 93.0001 103.712 93.0001H2.80999C2.52252 93.0001 2.23505 93.0001 1.94758 93.0001C0.829315 92.9779 0.0675204 92.3961 0.0100262 91.4191C-0.0819644 90.3092 0.464219 89.6579 1.43587 89.4207Z" fill="#2D2B2B"/>
<path d="M114.148 89.44C107.756 89.4526 101.363 89.4631 94.9685 89.4715C80.489 89.4715 66.0095 89.4715 51.53 89.4715C51.4608 89.4148 51.4388 89.3644 51.4671 89.3172C51.4954 89.27 51.5238 89.248 51.5489 89.248C53.9412 89.248 56.3335 89.2102 58.7226 89.2669C59.6669 89.292 60.0037 89.056 60.0006 88.0424C59.9691 72.4423 59.9596 56.8423 59.9722 41.2422L63.5292 41.1761C65.6476 40.6725 67.766 40.5686 69.8844 41.1761C69.7868 41.8434 69.2202 41.7805 68.7953 41.8057C67.9171 41.8371 67.6369 42.2999 67.6652 43.0931C67.6652 43.4456 67.6652 43.7982 67.6652 44.1507V86.7078C67.6652 88.8608 67.6652 88.8608 69.8686 88.8608H94.8017C95.2738 88.8608 95.746 88.8608 96.215 88.8923C98.2138 88.8325 100.213 88.8702 102.196 88.8734C102.669 88.8189 103.146 88.951 103.524 89.2417C106.64 89.2417 109.76 89.2417 112.876 89.2574C113.329 89.2606 113.776 89.1189 114.148 89.44Z" fill="#DEDEDE"/>
<path d="M103.562 89.2416H96.2593C95.7746 88.6718 95.8848 87.9825 95.8848 87.3246C95.8848 79.2791 95.8533 71.2335 95.8848 63.188C95.8832 63.0311 95.8642 62.8748 95.8281 62.7221C95.9163 60.1641 95.9163 57.6039 95.8281 55.0417C95.9351 51.041 95.8281 47.0371 95.8785 43.0363C95.8785 42.4068 95.762 41.7772 96.2436 41.2421L101.444 41.1729C103.26 40.5433 105.123 40.8581 106.971 40.9022C107.088 40.9079 107.202 40.9407 107.304 40.998C107.406 41.0554 107.494 41.1357 107.56 41.2327C106.703 41.6545 105.781 41.4436 104.906 41.3995C103.833 41.3492 103.521 41.6734 103.524 42.7719C103.562 56.6953 103.57 70.6176 103.549 84.5389L103.562 89.2416Z" fill="#DEDEDE"/>
<path d="M69.8766 41.2296L63.5372 41.1698C65.6682 39.8258 65.6619 37.6287 63.852 35.9163C59.9488 32.2366 56.3194 28.2642 52.41 24.5845C47.2981 19.7843 42.4727 14.7007 37.4552 9.79029C37.1404 9.47552 36.6872 9.21426 36.6777 8.66971C38.7552 6.69295 41.4182 6.68665 43.565 8.70434C45.2962 10.3348 46.9834 12.0094 48.6895 13.6651C52.005 17.0059 55.3216 20.3435 58.6393 23.678C62.7985 27.8456 66.9597 32.0068 71.1231 36.1618C73.1062 38.1449 72.9457 39.6463 70.5849 41.1384C70.5465 41.1936 70.497 41.2402 70.4395 41.2751C70.382 41.31 70.3178 41.3325 70.251 41.3411C70.1843 41.3497 70.1165 41.3442 70.052 41.325C69.9875 41.3058 69.9278 41.2733 69.8766 41.2296Z" fill="#126F43"/>
<path d="M107.57 41.2296L101.454 41.1698C103.582 39.5109 103.743 37.8395 101.769 36.0107C98.892 33.3572 96.2322 30.4833 93.3457 27.8487C90.7709 25.5005 88.4447 22.8973 85.8573 20.5775C83.4052 18.3741 81.1105 16.0385 78.8379 13.6714C78.9764 13.5958 78.7718 13.6242 78.9197 13.5895C81.202 13.0391 83.5838 13.051 85.8605 13.6242L108.625 35.7117C108.848 35.932 109.072 36.1523 109.298 36.3695C110.18 37.2131 110.649 38.1669 110.177 39.4165C109.704 40.6662 108.832 41.1918 107.57 41.2296Z" fill="#126F43"/>
<path d="M85.8563 13.6178L78.8337 13.665L78.6008 13.6021C78.1507 13.1173 78.2325 12.5067 78.2294 11.9244C78.2294 9.21733 78.2294 6.5103 78.2294 3.80327C78.2294 2.78341 78.2829 1.76355 77.7509 0.819234C77.5117 0.391146 77.581 0.0700768 78.1916 0.088963C80.1464 0.14877 82.1074 -0.0212011 84.0621 0.1834C85.3212 0.498171 85.8752 1.16234 85.8783 2.49696C85.8815 6.21126 85.8657 9.91927 85.8563 13.6178Z" fill="#2D2B2B"/>
<path d="M84.0586 0.189753H77.5586C78.6792 1.16869 78.6099 2.22003 78.6036 3.27451C78.5847 6.71811 78.6036 10.1649 78.6036 13.6084L73.4414 13.6179C73.4414 9.98228 73.4414 6.34353 73.4414 2.70792C73.4414 0.93576 74.1654 0.271595 75.8966 0.142539C78.2008 -0.0305849 80.5049 0.0386632 82.8216 0.0229246C83.2245 0.0197769 83.6715 -0.0872456 84.0586 0.189753Z" fill="#575757"/>
<path d="M45.6209 89.4776L28.5918 89.4556C28.6075 85.927 28.6295 82.3953 28.6327 78.8667C28.6327 71.4885 28.6327 64.1123 28.6327 56.7383C28.6327 54.7836 29.2937 54.1194 31.2295 54.1068C32.6019 54.1068 33.9775 54.1068 35.3499 54.1068C39.6214 54.069 43.896 54.0218 48.1705 53.9903C48.5923 53.9903 49.0362 53.8865 49.4296 54.1383C48.5231 54.8434 47.4655 54.4531 46.4771 54.5286C45.3628 54.5947 45.3502 54.5569 45.709 55.5988C45.911 56.2355 46.0036 56.9017 45.9829 57.5693C45.9829 67.642 45.9829 77.7199 45.9829 87.8031C45.9892 88.3665 46.0553 88.974 45.6209 89.4776Z" fill="#575757"/>
<path d="M45.6202 89.4777C45.6202 79.0252 45.6202 68.5727 45.6202 58.1202C45.6202 56.7384 45.5919 55.4006 44.3926 54.1321H49.4289C50.9241 54.3398 51.497 55.0418 51.5001 56.7038C51.5001 67.0849 51.5001 77.4661 51.5001 87.8472C51.5001 88.3162 51.5284 88.7915 51.5442 89.2542C51.5191 89.3259 51.5126 89.4028 51.5253 89.4777H45.6202Z" fill="#2D2B2B"/>
<path d="M69.8751 41.2296L70.577 41.1635L94.4996 41.1981C95.0851 41.1981 95.6706 41.2233 96.2561 41.239C96.2561 45.4569 96.2561 49.6759 96.2561 53.8959C96.2561 54.3051 96.4103 54.7679 96.0042 55.1015C95.3369 55.0008 94.9215 54.3555 94.2321 54.2957C88.6575 54.1981 83.086 54.2453 77.5146 54.324C75.393 54.3524 74.7321 55.1676 74.7195 57.2514C74.7195 58.3006 74.7195 59.3604 74.7195 60.4306C74.7195 62.7095 75.4592 63.4304 77.7822 63.443C81.5594 63.465 85.3178 63.4146 89.0856 63.465C89.9418 63.465 90.8011 63.4272 91.6572 63.465C93.1933 63.5437 94.6854 63.4461 96.042 62.6245C96.404 62.9834 96.2529 63.4398 96.2561 63.8522C96.2561 72.3132 96.2561 80.7732 96.2561 89.2322C86.9955 89.2322 77.7349 89.2322 68.4775 89.2605C67.4419 89.2605 67.2656 88.8922 67.2656 87.9668C67.2908 72.9018 67.2908 57.8358 67.2656 42.7688C67.2656 41.686 67.5553 41.2705 68.6412 41.4027C69.0315 41.4593 69.5037 41.5601 69.8751 41.2296Z" fill="#F3F3F3"/>
<path d="M94.6187 54.1447C95.2766 54.1793 95.6385 54.642 96.0037 55.089C96.4097 55.7185 96.2807 56.4582 96.2492 57.1476C96.1673 58.9701 96.5199 60.8115 96.0415 62.6183C95.4843 63.4997 94.6501 63.8019 93.6492 63.7893C92.1698 63.7704 90.6872 63.7704 89.2078 63.7641C89.1366 63.6699 89.0967 63.5557 89.0939 63.4377C89.0911 63.3196 89.1254 63.2037 89.192 63.1062C90.4511 60.3929 90.3378 57.6418 89.3463 54.897C89.0976 54.2076 89.1794 53.9747 89.9349 54.0156C91.493 54.1132 93.0606 53.9086 94.6187 54.1447Z" fill="#2ECC82"/>
<path d="M37.6126 72.6469C37.6178 72.8798 37.5756 73.1113 37.4886 73.3274C37.4016 73.5435 37.2715 73.7396 37.1064 73.9039C36.9412 74.0681 36.7444 74.1971 36.5278 74.283C36.3113 74.3689 36.0796 74.4098 35.8467 74.4033C35.3774 74.3919 34.9309 74.1982 34.6019 73.8633C34.2728 73.5284 34.0871 73.0786 34.084 72.6091C34.1048 72.1548 34.2951 71.7247 34.6173 71.4037C34.9395 71.0827 35.3703 70.894 35.8247 70.8748C36.2947 70.8796 36.7443 71.0674 37.0781 71.3982C37.4119 71.7291 37.6036 72.177 37.6126 72.6469Z" fill="#7E8A95"/>
<path d="M94.6186 54.1447H89.5193C90.6304 57.4215 91.0617 60.629 89.2045 63.7767C85.0905 63.7767 80.9733 63.8019 76.8592 63.7767C75.3735 63.7767 74.3819 62.7474 74.363 61.2585C74.341 59.6501 74.3441 58.0447 74.363 56.4363C74.3819 55.1268 75.0681 54.343 76.3619 54.1195C76.8576 54.0188 77.3609 53.9598 77.8665 53.9433C83.0413 53.9244 88.2141 53.9244 93.3847 53.9433C93.8033 53.9275 94.2597 53.7859 94.6186 54.1447Z" fill="#85F5C1"/>
</svg>

<svg width="115" height="93" fill="none" xmlns="http://www.w3.org/2000/svg"><path d="M1.574 89.437c.375-.315.828-.186 1.26-.186 2.86 0 5.725-.063 8.583.019 1.159.035 1.52-.24 1.517-1.473-.05-12.424-.031-24.848-.031-37.272v-9.29c.418-.48.995-.418 1.533-.418 14.718-.012 29.435-.012 44.15 0 .51 0 1.026 0 1.473.315.396.507.34 1.111.34 1.697v44.744c0 1.832-.199 2.005-2.043 2.012-1.845.006-3.61 0-5.414 0-.47 0-.945.05-1.376-.214-.557-.63-.393-1.41-.393-2.138-.013-9.684-.013-19.368 0-29.05V56.89c0-1.259-.51-2.112-1.77-2.433-1.573-.409-3.223-.315-4.793-.132-2.04.242-4.067.176-6.1.208-2.31.031-4.624 0-6.925 0-2.021 0-2.48.463-2.484 2.518-.013 10.154-.013 20.309 0 30.463 0 .693.129 1.423-.334 2.046-.522.362-1.123.315-1.709.315H3.41c-.676-.019-1.34.101-1.835-.437Z" fill="#F3F3F3"/><path d="M59.981 41.236c-1.486 0-2.974-.038-4.46-.038H14.286c-.47 0-.944.022-1.407.038l-2.471-.041a2.57 2.57 0 0 1-2.437-1.542 2.398 2.398 0 0 1 .39-2.833c1.014-1.093 2.103-2.112 3.148-3.148L36.666 8.72c2.417 2.291 4.722 4.678 7.082 7.038 6.743 6.78 13.73 13.312 20.404 20.146.579.591 1.164 1.158 1.259 2.052.204 1.712-.491 2.833-2.248 3.522-1.054.025-2.15.302-3.182-.242ZM48.683 13.69l20.992-.04c1.259 0 2.502-.02 3.752-.032.894-.592 1.889-.268 2.849-.33.66-.042 1.323-.032 1.983.028.127.014.252.04.374.079.327.135.618.344.85.61 2.518 2.518 5.106 4.96 7.643 7.457 4.158 4.092 8.458 8.03 12.528 12.213.868.894 1.92 1.609 2.745 2.556 1.718 1.983 1.12 4.316-1.341 5.244-1.63.148-3.261.066-4.892.066-8.35.026-16.702.114-25.046-.04-.523-.145-.78-.315-.258-.847 1.728-1.7 1.725-2.594.025-4.294-7.089-7.088-14.174-14.18-21.257-21.272-.396-.397-.979-.699-.947-1.398Z" fill="#2ECC82"/><path d="M1.436 89.42h24.676a1.916 1.916 0 0 1 1.228-.344c4.76 0 9.518-.047 14.279.029 1.82.066 3.653-.285 5.462.218 2.362.04 4.728.095 7.089 0 13.088-.512 26.182-.155 39.27-.13 3.597 0 7.214-.057 10.813.221 1.112.399 1.635 1.145 1.472 2.09-.164.946-.863 1.496-2.013 1.496H1.948C.829 92.978.068 92.396.01 91.42c-.092-1.11.454-1.762 1.426-2Z" fill="#2D2B2B"/><path d="M114.148 89.44c-6.392.013-12.785.023-19.18.032H51.53c-.07-.057-.091-.108-.063-.155.028-.047.057-.069.082-.069 2.392 0 4.785-.038 7.174.019.944.025 1.28-.211 1.278-1.225-.032-15.6-.041-31.2-.029-46.8l3.557-.066c2.119-.504 4.237-.607 6.355 0-.097.667-.664.605-1.089.63-.878.031-1.158.494-1.13 1.287v43.615c0 2.153 0 2.153 2.204 2.153h24.933c.472 0 .944 0 1.413.031 1.999-.06 3.998-.022 5.981-.019.473-.054.95.078 1.328.369 3.116 0 6.236 0 9.352.015.453.004.9-.138 1.272.183Z" fill="#DEDEDE"/><path d="M103.562 89.242h-7.303c-.484-.57-.374-1.26-.374-1.917 0-8.046-.032-16.091 0-24.137a2.12 2.12 0 0 0-.057-.466 111.5 111.5 0 0 0 0-7.68c.107-4.001 0-8.005.05-12.006 0-.63-.116-1.259.366-1.794l5.2-.07c1.816-.629 3.679-.314 5.527-.27a.755.755 0 0 1 .589.33c-.857.422-1.779.212-2.654.168-1.073-.05-1.385.273-1.382 1.372.038 13.923.046 27.846.025 41.767l.013 4.703Z" fill="#DEDEDE"/><path d="m69.877 41.23-6.34-.06c2.131-1.344 2.125-3.541.315-5.254-3.903-3.68-7.533-7.652-11.442-11.331-5.112-4.8-9.937-9.884-14.955-14.795-.315-.314-.768-.576-.777-1.12 2.077-1.977 4.74-1.983 6.887.034 1.731 1.63 3.418 3.305 5.125 4.961 3.315 3.34 6.632 6.678 9.95 10.013 4.158 4.168 8.32 8.329 12.483 12.484 1.983 1.983 1.823 3.484-.538 4.976a.482.482 0 0 1-.708.092Zm37.693 0-6.116-.06c2.128-1.66 2.289-3.33.315-5.16-2.877-2.653-5.537-5.527-8.423-8.161-2.575-2.349-4.901-4.952-7.489-7.271-2.452-2.204-4.746-4.54-7.02-6.907.14-.075-.065-.047.083-.082a14.503 14.503 0 0 1 6.94.035l22.765 22.088c.223.22.447.44.673.657.882.844 1.351 1.798.879 3.047-.473 1.25-1.345 1.776-2.607 1.814Z" fill="#126F43"/><path d="m85.856 13.618-7.022.047-.233-.063c-.45-.485-.368-1.095-.372-1.678v-8.12c0-1.02.054-2.04-.478-2.985-.24-.428-.17-.749.44-.73 1.955.06 3.916-.11 5.871.094 1.26.315 1.813.98 1.816 2.314.004 3.714-.012 7.422-.022 11.12Z" fill="#2D2B2B"/><path d="M84.059.19h-6.5c1.12.979 1.05 2.03 1.045 3.085-.02 3.443 0 6.89 0 10.333l-5.163.01V2.708c0-1.772.724-2.436 2.456-2.565 2.304-.174 4.608-.104 6.925-.12.403-.003.85-.11 1.237.167ZM45.62 89.478l-17.028-.022c.016-3.529.038-7.06.04-10.59V56.739c0-1.954.662-2.619 2.598-2.631h4.12c4.271-.038 8.546-.085 12.82-.117.422 0 .866-.104 1.26.148-.907.705-1.965.315-2.953.39-1.114.067-1.127.029-.768 1.07a5.91 5.91 0 0 1 .274 1.971v30.234c.006.564.072 1.171-.362 1.675Z" fill="#575757"/><path d="M45.62 89.478V58.12c0-1.382-.028-2.72-1.227-3.988h5.036c1.495.208 2.068.91 2.071 2.572v31.143c0 .47.028.945.044 1.407a.45.45 0 0 0-.019.224H45.62Z" fill="#2D2B2B"/><path d="m69.875 41.23.702-.066 23.923.034c.585 0 1.17.025 1.756.041v12.657c0 .41.154.872-.252 1.206-.667-.101-1.083-.746-1.772-.806-5.575-.098-11.146-.05-16.717.028-2.122.028-2.783.844-2.796 2.927v3.18c0 2.279.74 3 3.063 3.012 3.777.022 7.536-.028 11.304.022.856 0 1.715-.038 2.571 0 1.536.079 3.028-.019 4.385-.84.362.358.21.815.214 1.227v25.38c-9.26 0-18.521 0-27.778.028-1.036 0-1.212-.368-1.212-1.293.025-15.065.025-30.131 0-45.198 0-1.083.29-1.498 1.375-1.366.39.056.863.157 1.234-.173Z" fill="#F3F3F3"/><path d="M94.619 54.145c.658.034 1.02.497 1.385.944.406.63.277 1.37.245 2.059-.082 1.822.27 3.663-.207 5.47-.558.882-1.392 1.184-2.393 1.171-1.48-.019-2.962-.019-4.441-.025a.564.564 0 0 1-.016-.658c1.26-2.713 1.146-5.464.154-8.209-.248-.69-.167-.922.589-.881 1.558.097 3.126-.107 4.684.129Z" fill="#2ECC82"/><path d="M37.613 72.647a1.72 1.72 0 0 1-1.766 1.756 1.807 1.807 0 0 1-1.763-1.794 1.82 1.82 0 0 1 1.74-1.734 1.807 1.807 0 0 1 1.789 1.772Z" fill="#7E8A95"/><path d="M94.619 54.145h-5.1c1.111 3.276 1.543 6.484-.315 9.632-4.113 0-8.23.025-12.345 0-1.485 0-2.477-1.03-2.496-2.519a189.524 189.524 0 0 1 0-4.822c.019-1.31.705-2.093 1.999-2.316.496-.101.999-.16 1.505-.177a2112.36 2112.36 0 0 1 15.518 0c.418-.015.875-.157 1.234.202Z" fill="#85F5C1"/></svg>
